X:88
%%NRChange 2019-08-20
T:Storm
O:Denmark
C:from the playing of Dwight Lamb
M:C
L:1/16
Q:1/4=120
S:Jensen & Bugge from Dwight Lamb
K:G
P:A
|: DD | "G"D2E2 D2C2 | B,6 BB | B2c2 B2A2 | G6 Bd |
"D"c2B2 A2G2 | "G"B2D2 G2A2 | B4 "D"A4 | "G"G6:| 
P: B
|:BB | "G"B2G2 B2GB | "D"A2DD D2cc | c2A2 c2A2 | 
"G"B2G2 B2d2 | "C"e2d2 e2f2 | g2e2 d2c2 | "G"B4 "D"A4 | "G"G6 :|

